X: 87
T: No_17_Song_of_Departure.krn
%%abc-version 2.0
%%abcx-abcm2ps-target-version 5.9.1 (29 Sep 2008)
%%abc-creator hum2abc beta
%%abcx-conversion-date 2020/08/10 18:54:57
%%gracespace 0 6 6
%%humdrum-veritas 1440262464
%%humdrum-veritas-data 194136904
%%linebreak <none>
%%barnumbers 0
L: 1/8
M: 5/4
%%staves {1 2}
V: 1 clef=bass
V: 2 clef=bass
K: G
[V:1] [K:clef=bass][M:5/4]G2G<EEE B,B,B,2 | 
[V:2] [K:clef=bass][M:5/4]!accent!G,,2!accent!G,,2!accent!G,,2!accent!G,,2!accent!G,,2 | 
[V:1] E2E<B,B,B, B,B,B,2 ||  
[V:2] z8z2 ||  
[V:1] [M:3/4]B,6 ||  
[V:2] [M:3/4]z6 ||  
[V:1] [M:5/4]B,B,B,B,A,A, G,G,E,2 | 
[V:2] [M:5/4]z8z2 | 
[V:1] G,G,E,E,G,E, B,,B,,B,,2 ||  
[V:2] z8z2 ||  
[V:1] [M:3/4]B,,6 |]  
[V:2] [M:3/4]z6 |]  


